X: 34359
T: Return To The Stewartry
R: jig
M: 6/8
K: Bminor
|:"Bm"f2f ef"G"e-|efe de"A"c-|cdc BA{A}"Bm"B-|B2B (3FBd e|
"Bm"f2f ef"G"e-|efe de"A"c-|cdc BA{A}"Bm"B-|1 B2B (3FBd e:|2 B3) B3||
|:"Bm"FFF Bcd|"Em"FEF GAB|"A"cAd AeA|"D"fFG AB=c|"G"BG=c GdG|
"C"eGA B=cd|1 "F#"f6-|"F#7"f_B=B cAG:|2 "F#7"fdf _bfb|"Bm"b6||

